UI/Tools/SVG/picker_outline_24px.svg

<svg width="24" height="24" viewBox="0 0 24 24" fill="none" xmlns="http://www.w3.org/2000/svg">
<path d="M11.49 11.08L12.93 12.52L6.33 19.13L4.39 19.62L4.88 17.69L11.49 11.08ZM19 2C18.2046 2.0007 17.4421 2.31723 16.88 2.88L14.32 5.42L12.32 3.42L10.91 4.84L14.32 8.25L18.27 4.25C18.3691 4.16206 18.4846 4.09467 18.6099 4.05175C18.7352 4.00884 18.8678 3.99125 19 4C19.2575 4.00103 19.5046 4.10132 19.69 4.28C19.7875 4.37295 19.8652 4.48463 19.9185 4.60836C19.9718 4.73208 19.9995 4.8653 20 5C19.9989 5.26234 19.8947 5.51374 19.71 5.7L15.76 9.7L19.17 13.11L20.58 11.69L18.58 9.69L21.12 7.16C21.3997 6.88129 21.6216 6.55011 21.773 6.18546C21.9244 5.8208 22.0024 5.42984 22.0024 5.035C22.0024 4.64016 21.9244 4.2492 21.773 3.88454C21.6216 3.51989 21.3997 3.18871 21.12 2.91C20.8442 2.62592 20.5148 2.39925 20.151 2.24306C19.7871 2.08688 19.3959 2.00427 19 2ZM11.49 8.25L3.08 16.66L2 20.73C1.95734 20.8817 1.95114 21.0413 1.9819 21.1959C2.01265 21.3504 2.0795 21.4955 2.17699 21.6193C2.27447 21.7431 2.39984 21.8422 2.54287 21.9083C2.68589 21.9745 2.84252 22.0059 3 22C3.09615 22.0141 3.19384 22.0141 3.29 22L7.36 21L15.77 12.59L11.49 8.25Z" fill="#0F1621"/>
</svg>

<svg xmlns="http://www.w3.org/2000/svg" width="24" height="24" viewBox="0 0 24 24"><rect width="24" height="24" style="fill:none"/><path d="M11.49,11.08l1.44,1.44-6.6,6.61-1.94.49.49-1.93,6.61-6.61M19,2a3,3,0,0,0-2.12.88L14.32,5.42l-2-2L10.91,4.84l3.41,3.41,3.95-4A1,1,0,0,1,19,4a1,1,0,0,1,.69.28l0,0h0A1,1,0,0,1,20,5a1,1,0,0,1-.29.7l-3.95,4,3.41,3.41,1.41-1.42-2-2,2.54-2.53a3,3,0,0,0,0-4.25l0,0A3,3,0,0,0,19,2ZM11.49,8.25,3.08,16.66,2,20.73A1,1,0,0,0,3,22a1,1,0,0,0,.29,0l4.07-1,8.41-8.41L11.49,8.25Z"/></svg>
